X:1
T:Creator of the Stars of Night
T:Creator of the Stars of Night
T:6, first tune
T:Sarum Plainsong, Mode IV
T:Conditor Alme
C:Sarum Plainsong, Mode IV
Z:Conditor Alme
%%score 1 2 3 4
L:1/8
Q:1/8=80
M:18/8
K:E
V:1 treble transpose=-2 nm="B♭ Trumpet" snm="B♭ Tpt."
V:2 treble transpose=-2 nm="B♭ Trumpet" snm="B♭ Tpt."
V:3 bass nm="Trombone" snm="Trom."
V:4 bass nm="Tuba" snm="Tba."
V:1
[K:E] ^AFAcddB c2 cdBcBAG A2 | cBG^ABAG F2 FABcBAG A2 || ^ABA G2 A2 |] %3
V:2
[K:E] ^E F2- F4- F2 E D4 E2 F2 | F D4 ^E2 F2 D- D4- D2- DC || C3- C4 |] %3
V:3
 B,3 G,2- G,A, G,3 [E,A,]2 F,2 B,2- B,2 | G, F,4 B,2 G,3 E,2 F,2 C,2 D,2 || E,3 D,4 |] %3
V:4
 G,3 E,2 D,2 E,3 A,,4 B,,2 E,2 | E, F,4 B,,2 C,3- C,2 F,,2 A,,2 G,,2 || E,,3 B,,2 G,,2 |] %3

